svgs/amaze_utilities.svg

<svg width="192" height="192" viewBox="0 0 192 192" fill="none" xmlns="http://www.w3.org/2000/svg">
<path d="M46.4862 86.5656C46.4862 92.576 51.3586 97.4484 57.369 97.4484C63.3794 97.4484 68.2517 92.576 68.2517 86.5656C68.2517 80.5553 63.3794 75.6829 57.369 75.6829C51.3586 75.6829 46.4862 80.5553 46.4862 86.5656ZM46.4862 86.5656H22" stroke="black" stroke-width="8" stroke-linecap="round" stroke-linejoin="round"/>
<path d="M62.3533 138.977C68.4118 138.977 73.3231 134.066 73.3231 128.007C73.3231 121.949 68.4118 117.037 62.3533 117.037C56.2949 117.037 51.3835 121.949 51.3835 128.007C51.3835 134.066 56.2949 138.977 62.3533 138.977ZM62.3533 138.977V145.376L74.2373 158.174" stroke="black" stroke-width="8" stroke-linecap="round" stroke-linejoin="round"/>
<path d="M142.799 69.1532C136.788 69.1532 131.916 74.0256 131.916 80.036C131.916 86.0464 136.788 90.9187 142.799 90.9187C148.809 90.9187 153.681 86.0464 153.681 80.036C153.681 74.0256 148.809 69.1532 142.799 69.1532ZM142.799 69.1532V55.5498" stroke="black" stroke-width="8"/>
<path d="M22 107.787V130.568C22 147.137 35.4315 160.568 52 160.568H140.005C156.574 160.568 170.005 147.137 170.005 130.568V85.0056C170.005 68.4371 156.574 55.0056 140.005 55.0056H96.0027M22 107.787V56.0056C22 55.4534 22.4477 55.0056 23 55.0056H96.0027M22 107.787V44.0636C22 36.8839 27.8203 31.0636 35 31.0636H66.6678C80.8916 31.0636 93.1524 41.0703 96.0027 55.0056V55.0056M96.0027 55.0056L100.356 69.1532" stroke="black" stroke-width="12"/>
<path d="M154.77 148.597V119.214L167.829 106.699" stroke="black" stroke-width="8" stroke-linecap="round" stroke-linejoin="round"/>
<path d="M101.614 100.406C101.388 92.4079 111.851 89.2089 116.137 95.9665V95.9665C118.443 99.6032 123.258 100.703 126.927 98.4483V98.4483C133.717 94.2746 141.804 101.526 138.308 108.689L137.953 109.417C136.063 113.287 137.492 117.96 141.223 120.113L141.924 120.517C148.828 124.5 146.179 135.034 138.216 135.371V135.371C133.913 135.553 130.536 139.158 130.658 143.463V143.463C130.884 151.461 120.42 154.66 116.135 147.903V147.903C113.829 144.266 109.013 143.166 105.345 145.421V145.421C98.5546 149.595 90.4675 142.343 93.9637 135.18L94.319 134.453C96.2085 130.582 94.7798 125.909 91.0489 123.757L90.3474 123.352C83.4437 119.369 86.0931 108.835 94.0562 108.498V108.498C98.3586 108.316 101.736 104.711 101.614 100.406V100.406Z" stroke="black" stroke-width="8"/>
<circle cx="116.68" cy="122.479" r="9.79448" stroke="black" stroke-width="6"/>
<path d="M117.811 83.8787C118.455 81.2087 118.378 78.4156 117.588 75.785C116.799 73.1545 115.324 70.7809 113.316 68.9071C111.308 67.0334 108.838 65.7267 106.159 65.1208C103.48 64.5149 100.689 64.6316 98.0697 65.4588C95.4507 66.286 93.0984 67.7941 91.2536 69.8288C89.4087 71.8635 88.1375 74.3518 87.57 77.0391C87.0024 79.7263 87.159 82.5161 88.0235 85.1231C88.8881 87.73 90.4297 90.0604 92.4906 91.876L102.739 80.2427L117.811 83.8787Z" stroke="black" stroke-width="8" stroke-linejoin="round"/>
</svg>

<svg xmlns="http://www.w3.org/2000/svg" width="192" height="192" fill="none" viewBox="0 0 192 192"><path stroke="#000" stroke-linecap="round" stroke-linejoin="round" stroke-width="8" d="M46.486 86.566c0 6.01 4.873 10.882 10.883 10.882 6.01 0 10.883-4.872 10.883-10.882s-4.873-10.883-10.883-10.883c-6.01 0-10.883 4.872-10.883 10.883Zm0 0H22m40.353 52.411c6.059 0 10.97-4.911 10.97-10.97 0-6.058-4.911-10.97-10.97-10.97-6.058 0-10.97 4.912-10.97 10.97 0 6.059 4.912 10.97 10.97 10.97Zm0 0v6.399l11.884 12.798"/><path stroke="#000" stroke-width="8" d="M142.799 69.153c-6.011 0-10.883 4.873-10.883 10.883 0 6.01 4.872 10.883 10.883 10.883 6.01 0 10.882-4.873 10.882-10.883 0-6.01-4.872-10.883-10.882-10.883Zm0 0V55.55"/><path stroke="#000" stroke-width="12" d="M22 107.787v22.781c0 16.569 13.431 30 30 30h88.005c16.569 0 30-13.431 30-30V85.006c0-16.569-13.431-30-30-30H96.003M22 107.787V56.006a1 1 0 0 1 1-1h73.003M22 107.787V44.064c0-7.18 5.82-13 13-13h31.668c14.224 0 26.484 10.006 29.335 23.942m0 0 4.353 14.147"/><path stroke="#000" stroke-linecap="round" stroke-linejoin="round" stroke-width="8" d="M154.77 148.597v-29.383l13.059-12.515"/><path stroke="#000" stroke-width="8" d="M101.614 100.406c-.226-7.998 10.237-11.197 14.523-4.44 2.306 3.637 7.121 4.737 10.79 2.482 6.79-4.173 14.877 3.078 11.381 10.241l-.355.728a8.197 8.197 0 0 0 3.27 10.696l.701.404c6.904 3.983 4.255 14.517-3.708 14.854-4.303.182-7.68 3.787-7.558 8.092.226 7.998-10.238 11.197-14.523 4.44-2.306-3.637-7.122-4.737-10.79-2.482-6.79 4.174-14.877-3.078-11.381-10.241l.355-.727a8.197 8.197 0 0 0-3.27-10.696l-.702-.405c-6.903-3.983-4.254-14.517 3.71-14.854 4.302-.182 7.679-3.787 7.557-8.092Z"/><circle cx="116.68" cy="122.479" r="9.794" stroke="#000" stroke-width="6"/><path stroke="#000" stroke-linejoin="round" stroke-width="8" d="M117.811 83.879a15.502 15.502 0 0 0-4.495-14.972 15.504 15.504 0 1 0-20.825 22.969l10.248-11.633 15.072 3.636Z"/></svg>
